resources/svg/vimeo.svg

<svg width="19" height="19" viewBox="0 0 19 19" fill="none" xmlns="http://www.w3.org/2000/svg">
<g id="mdi:vimeo">
<path id="Vector" d="M17.2024 6.00721C17.1337 7.49434 16.0965 9.53055 14.0908 12.1235C12.0165 14.8384 10.2625 16.173 8.81347 16.173C7.93645 16.173 7.18145 15.3494 6.56372 13.6945C6.14427 12.1997 5.76296 10.6897 5.33589 9.17974C4.87831 7.53247 4.39023 6.70883 3.8564 6.70883C3.74963 6.70883 3.35306 6.95287 2.6667 7.43332L1.94983 6.50292C2.71246 5.83943 3.44458 5.17595 4.1767 4.51246C5.18337 3.64307 5.93837 3.18549 6.43407 3.13974C7.62377 3.01772 8.35589 3.84135 8.63044 5.58014C8.92786 7.46383 9.13377 8.63065 9.24816 9.08822C9.57609 10.644 9.95741 11.4066 10.3769 11.4066C10.6972 11.4066 11.1776 10.9185 11.8182 9.90424C12.4588 8.89757 12.802 8.12732 12.8478 7.59348C12.9393 6.72408 12.5961 6.28938 11.8182 6.28938C11.4522 6.28938 11.0785 6.37327 10.6895 6.54105C11.4369 4.07777 12.8706 2.88044 14.9831 2.94908C16.5541 2.99484 17.2939 4.01676 17.2024 6.00721Z" fill="white"/>
</g>
</svg>

<svg xmlns="http://www.w3.org/2000/svg" fill="none" viewBox="0 0 19 19">
  <path fill="currentColor" d="M17.202 6.007c-.068 1.487-1.106 3.524-3.111 6.117-2.074 2.714-3.829 4.049-5.278 4.049-.877 0-1.632-.824-2.25-2.478-.419-1.495-.8-3.005-1.227-4.515-.458-1.648-.946-2.471-1.48-2.471-.106 0-.503.244-1.19.724l-.716-.93a154.5 154.5 0 0 0 2.227-1.99c1.006-.87 1.761-1.328 2.257-1.373 1.19-.122 1.922.701 2.196 2.44.298 1.884.504 3.05.618 3.508.328 1.556.71 2.319 1.129 2.319.32 0 .8-.489 1.441-1.503.64-1.006.984-1.777 1.03-2.31.091-.87-.252-1.305-1.03-1.305-.366 0-.74.084-1.128.252.747-2.463 2.18-3.66 4.293-3.592 1.571.046 2.31 1.068 2.22 3.058Z"/>
</svg>
